images/decorative/skills/webpack-icon.svg

<svg width="512" height="512" fill="none" xmlns="http://www.w3.org/2000/svg"><path d="m256.246 0 226.247 127.979v256.042L256.246 512 30 384.021V127.979L256.246 0Z" fill="#fff"/><path d="m442.113 375.142-178.35 101v-78.546l111.159-61.215 67.191 38.761Zm12.209-11.013v-211.05l-65.227 37.651v135.748l65.227 37.651Zm-384.62 11.013 178.351 100.915v-78.546l-111.159-61.13-67.191 38.761Zm-12.208-11.013v-211.05l65.227 37.651v135.748l-65.227 37.651Zm7.599-224.71 182.96-103.476v75.985l-117.221 64.459-.939.512-64.8-37.48Zm381.545 0L263.763 35.943v75.985l117.135 64.544.94.512 64.8-37.565Z" fill="#8ED6FB"/><path d="m248.051 379.667-109.623-60.361V199.865l109.623 63.264v116.538Zm15.709 0 109.623-60.275V199.865L263.76 263.129v116.538ZM145.77 186.035l110.135-60.532 110.05 60.532-110.05 63.519-110.135-63.519Z" fill="#1C78C0"/></svg>

<svg width="512" height="512" viewBox="0 0 512 512" fill="none" xmlns="http://www.w3.org/2000/svg">
<path d="M256.246 0L482.493 127.979V384.021L256.246 512L30 384.021V127.979L256.246 0Z" fill="white"/>
<path d="M442.113 375.142L263.763 476.142V397.596L374.922 336.381L442.113 375.142ZM454.322 364.129V153.079L389.095 190.73V326.478L454.322 364.129ZM69.7029 375.142L248.053 476.057V397.511L136.894 336.381L69.7029 375.142ZM57.4941 364.129V153.079L122.721 190.73V326.478L57.4941 364.129ZM65.0926 139.419L248.053 35.9431V111.928L130.832 176.387L129.893 176.899L65.0926 139.419ZM446.638 139.419L263.763 35.9431V111.928L380.898 176.472L381.838 176.984L446.638 139.419Z" fill="#8ED6FB"/>
<path d="M248.051 379.667L138.428 319.306V199.865L248.051 263.129V379.667ZM263.76 379.667L373.383 319.392V199.865L263.76 263.129V379.667ZM145.77 186.035L255.905 125.503L365.955 186.035L255.905 249.554L145.77 186.035Z" fill="#1C78C0"/>
</svg>
